icons/Redux.svg

<svg width="256" height="256" viewBox="0 0 256 256" fill="none" xmlns="http://www.w3.org/2000/svg">
<rect width="256" height="256" rx="60" fill="#764ABC"/>
<path d="M166.579 165.599C173.96 164.835 179.559 158.472 179.304 150.837C179.05 143.202 172.687 137.094 165.052 137.094H164.543C156.653 137.348 150.545 143.965 150.799 151.855C151.054 155.673 152.581 158.981 154.871 161.272C146.218 178.324 132.984 190.795 113.132 201.23C99.6432 208.356 85.6452 210.901 71.6472 209.12C60.1944 207.593 51.2866 202.502 45.6874 194.104C37.5431 181.633 36.7796 168.144 43.6513 154.655C48.487 144.983 56.1222 137.857 60.9579 134.294C59.9399 130.986 58.4128 125.386 57.6493 121.314C20.7456 148.038 24.5632 184.178 35.7615 201.23C44.1603 213.955 61.2124 221.845 80.046 221.845C85.1362 221.845 90.2264 221.336 95.3165 220.063C127.894 213.701 152.581 194.358 166.579 165.599V165.599Z" fill="white"/>
<path d="M211.372 134.04C192.03 111.388 163.525 98.9175 130.948 98.9175H126.876C124.585 94.3363 119.749 91.2822 114.405 91.2822H113.896C106.006 91.5367 99.8977 98.154 100.152 106.044C100.407 113.679 106.769 119.787 114.405 119.787H114.914C120.513 119.533 125.349 115.97 127.385 111.134H131.966C151.308 111.134 169.633 116.733 186.176 127.677C198.901 136.076 208.064 147.02 213.154 160.254C217.481 170.943 217.226 181.378 212.645 190.286C205.519 203.775 193.557 211.156 177.777 211.156C167.597 211.156 157.926 208.102 152.835 205.811C150.036 208.356 144.946 212.428 141.383 214.973C152.326 220.063 163.525 222.863 174.214 222.863C198.647 222.863 216.717 209.374 223.589 195.885C230.97 181.124 230.461 155.673 211.372 134.04Z" fill="white"/>
<path d="M82.0822 169.926C82.3367 177.561 88.6994 183.669 96.3347 183.669H96.8437C104.733 183.414 110.842 176.797 110.587 168.907C110.333 161.272 103.97 155.164 96.3347 155.164H95.8256C95.3166 155.164 94.5531 155.164 94.0441 155.419C83.6092 138.112 79.2826 119.278 80.8096 98.9177C81.8277 83.6472 86.9178 70.4127 95.8256 59.4689C103.206 50.0521 117.459 45.4709 127.13 45.2164C154.108 44.7074 165.561 78.3025 166.324 91.7915C169.633 92.555 175.232 94.3365 179.05 95.6091C175.996 54.3787 150.545 33 126.112 33C103.206 33 82.0822 49.543 73.6834 73.9759C61.976 106.553 69.6113 137.857 83.8637 162.545C82.5912 164.326 81.8277 167.126 82.0822 169.926V169.926Z" fill="white"/>
</svg>

<svg xmlns="http://www.w3.org/2000/svg" width="256" height="256" fill="none" viewBox="0 0 256 256"><rect width="256" height="256" fill="#764ABC" rx="60"/><path fill="#fff" d="M166.58 165.6a14.3 14.3 0 0 0-1.53-28.5h-.5c-7.9.25-14 6.87-13.75 14.75a14.6 14.6 0 0 0 4.07 9.42c-8.65 17.05-21.89 29.52-41.74 39.96-13.49 7.13-27.48 9.67-41.48 7.89-11.46-1.53-20.36-6.62-25.96-15.02-8.15-12.47-8.91-25.96-2.04-39.44 4.84-9.68 12.47-16.8 17.3-20.37-1.01-3.3-2.54-8.9-3.3-12.98-36.9 26.73-33.09 62.87-21.89 79.92 8.4 12.73 25.45 20.62 44.29 20.62 5.09 0 10.18-.51 15.27-1.79 32.57-6.36 57.26-25.7 71.26-54.46"/><path fill="#fff" d="M211.37 134.04c-19.34-22.65-47.84-35.12-80.42-35.12h-4.07a14 14 0 0 0-12.47-7.64h-.51c-7.9.26-14 6.87-13.75 14.76a14.3 14.3 0 0 0 14.25 13.75h.51a14.3 14.3 0 0 0 12.48-8.66h4.58c19.34 0 37.66 5.6 54.2 16.55 12.73 8.4 21.9 19.34 26.98 32.57 4.33 10.7 4.08 21.13-.5 30.04-7.13 13.49-19.1 20.87-34.87 20.87a65 65 0 0 1-24.94-5.35 149 149 0 0 1-11.46 9.16c10.95 5.1 22.15 7.9 32.83 7.9 24.44 0 42.5-13.5 49.38-26.99 7.38-14.76 6.87-40.2-12.22-61.84"/><path fill="#fff" d="M82.08 169.93a14.3 14.3 0 0 0 14.25 13.74h.51c7.9-.26 14-6.87 13.75-14.76a14.3 14.3 0 0 0-14.26-13.75h-.5c-.51 0-1.28 0-1.79.26-10.43-17.3-14.76-36.14-13.23-56.5 1.02-15.27 6.1-28.5 15.02-39.45 7.38-9.42 21.63-14 31.3-14.25 26.98-.51 38.43 33.08 39.2 46.57 3.3.77 8.9 2.55 12.72 3.82C176 54.38 150.55 33 126.11 33c-22.9 0-44.03 16.54-52.43 40.98-11.7 32.57-4.07 63.88 10.18 88.56a11.4 11.4 0 0 0-1.78 7.39"/></svg>
